packages/kaspersky-hexa-ui-icons/src/iconsSVGs/32/Placeholder.svg

<svg xmlns="http://www.w3.org/2000/svg" width="32" height="32" fill="none" viewBox="0 0 32 32"><path fill="#000" fill-rule="evenodd" d="M8 4C5.7909 4 4 5.7909 4 8v2c0 .5523.4477 1 1 1s1-.4477 1-1V8c0-1.1046.8954-2 2-2h2c.5523 0 1-.4477 1-1s-.4477-1-1-1zm7 0c-.5523 0-1 .4477-1 1s.4477 1 1 1h2c.5523 0 1-.4477 1-1s-.4477-1-1-1zm7 0c-.5523 0-1 .4477-1 1s.4477 1 1 1h2c1.1046 0 2 .8954 2 2v2c0 .5523.4477 1 1 1s1-.4477 1-1V8c0-2.2091-1.7909-4-4-4zM6 15c0-.5523-.4477-1-1-1s-1 .4477-1 1v2c0 .5523.4477 1 1 1s1-.4477 1-1zm22 0c0-.5523-.4477-1-1-1s-1 .4477-1 1v2c0 .5523.4477 1 1 1s1-.4477 1-1zM6 22c0-.5523-.4477-1-1-1s-1 .4477-1 1v2c0 2.2091 1.7909 4 4 4h2c.5523 0 1-.4477 1-1s-.4477-1-1-1H8c-1.1046 0-2-.8954-2-2zm22 0c0-.5523-.4477-1-1-1s-1 .4477-1 1v2c0 1.1046-.8954 2-2 2h-2c-.5523 0-1 .4477-1 1s.4477 1 1 1h2c2.2091 0 4-1.7909 4-4zm-13 4c-.5523 0-1 .4477-1 1s.4477 1 1 1h2c.5523 0 1-.4477 1-1s-.4477-1-1-1z"/></svg>

<svg width="32" height="32" viewBox="0 0 32 32" fill="none" xmlns="http://www.w3.org/2000/svg">
<path d="M8 4C5.79086 4 4 5.79086 4 8V10C4 10.5523 4.44772 11 5 11C5.55228 11 6 10.5523 6 10V8C6 6.89543 6.89543 6 8 6H10C10.5523 6 11 5.55228 11 5C11 4.44772 10.5523 4 10 4H8Z" fill="black"/>
<path d="M22 4C21.4477 4 21 4.44772 21 5C21 5.55228 21.4477 6 22 6H24C25.1046 6 26 6.89543 26 8V10C26 10.5523 26.4477 11 27 11C27.5523 11 28 10.5523 28 10V8C28 5.79086 26.2091 4 24 4H22Z" fill="black"/>
<path d="M6 22C6 21.4477 5.55228 21 5 21C4.44772 21 4 21.4477 4 22V24C4 26.2091 5.79086 28 8 28H10C10.5523 28 11 27.5523 11 27C11 26.4477 10.5523 26 10 26H8C6.89543 26 6 25.1046 6 24V22Z" fill="black"/>
<path d="M28 22C28 21.4477 27.5523 21 27 21C26.4477 21 26 21.4477 26 22V24C26 25.1046 25.1046 26 24 26H22C21.4477 26 21 26.4477 21 27C21 27.5523 21.4477 28 22 28H24C26.2091 28 28 26.2091 28 24V22Z" fill="black"/>
<path d="M15 4C14.4477 4 14 4.44772 14 5C14 5.55228 14.4477 6 15 6H17C17.5523 6 18 5.55228 18 5C18 4.44772 17.5523 4 17 4H15Z" fill="black"/>
<path d="M6 15C6 14.4477 5.55228 14 5 14C4.44772 14 4 14.4477 4 15V17C4 17.5523 4.44772 18 5 18C5.55228 18 6 17.5523 6 17V15Z" fill="black"/>
<path d="M28 15C28 14.4477 27.5523 14 27 14C26.4477 14 26 14.4477 26 15V17C26 17.5523 26.4477 18 27 18C27.5523 18 28 17.5523 28 17V15Z" fill="black"/>
<path d="M15 26C14.4477 26 14 26.4477 14 27C14 27.5523 14.4477 28 15 28H17C17.5523 28 18 27.5523 18 27C18 26.4477 17.5523 26 17 26H15Z" fill="black"/>
</svg>
